X: 105
T:Garster's Dream
% Nottingham Music Database
S:Peter Kennedy, via EF
Y:AB
M:4/4
K:G
M:6/8
P:A
D|"G"G2B BGB|"C"cdc "G"BAG|"D7"FGA ABA|"D7"AdA FED|
"G"G2B BGB|"C"cdc "G"BAG|"Am"F2E "D7"DEF|"G"G3 G2:|
P:B
d/2f/2|"G"gag gdB|"D7"ABA ABd|"G"gag gdB|"D7"ded def|
"G"gag gdB|"Am"AcB "D7"AGE|"C"G2E "D7"DEF|"G"G3 G2:|


